assets/images/vk.svg

<svg width="25" height="25" viewBox="0 0 25 25" fill="none" xmlns="http://www.w3.org/2000/svg">
<path d="M12.5 25C19.4036 25 25 19.4036 25 12.5C25 5.59644 19.4036 0 12.5 0C5.59644 0 0 5.59644 0 12.5C0 19.4036 5.59644 25 12.5 25Z" fill="#4D76A1"/>
<path fill-rule="evenodd" clip-rule="evenodd" d="M12.0278 17.9824H13.0089C13.0089 17.9824 13.3053 17.9498 13.4566 17.7867C13.5959 17.637 13.5914 17.3558 13.5914 17.3558C13.5914 17.3558 13.5722 16.0393 14.1832 15.8455C14.7855 15.6545 15.5589 17.1178 16.3787 17.6804C16.9986 18.1063 17.4697 18.0129 17.4697 18.0129L19.6616 17.9824C19.6616 17.9824 20.8082 17.9117 20.2645 17.0102C20.22 16.9364 19.9479 16.3433 18.6348 15.1244C17.2604 13.8488 17.4445 14.0551 19.1001 11.8485C20.1084 10.5046 20.5114 9.68416 20.3855 9.33277C20.2654 8.99809 19.5239 9.08655 19.5239 9.08655L17.0559 9.10192C17.0559 9.10192 16.8729 9.07697 16.7372 9.15808C16.6047 9.23762 16.5193 9.42301 16.5193 9.42301C16.5193 9.42301 16.1287 10.4629 15.6077 11.3473C14.5088 13.2135 14.0694 13.312 13.8898 13.1961C13.472 12.926 13.5763 12.1112 13.5763 11.5323C13.5763 9.72383 13.8505 8.96979 13.0421 8.7746C12.7739 8.70975 12.5764 8.66697 11.8904 8.66006C11.0098 8.65093 10.2644 8.66274 9.84239 8.86952C9.56163 9.007 9.34504 9.31338 9.47695 9.33099C9.64006 9.35282 10.0095 9.43059 10.2054 9.69731C10.4583 10.0414 10.4494 10.8141 10.4494 10.8141C10.4494 10.8141 10.5946 12.943 10.11 13.2075C9.77732 13.3888 9.32098 13.0185 8.34122 11.3255C7.83919 10.4583 7.46017 9.49967 7.46017 9.49967C7.46017 9.49967 7.38708 9.32051 7.25673 9.2247C7.09853 9.10861 6.87748 9.07162 6.87748 9.07162L4.53226 9.08699C4.53226 9.08699 4.1802 9.0968 4.05096 9.24988C3.93598 9.38603 4.04182 9.66768 4.04182 9.66768C4.04182 9.66768 5.87789 13.9633 7.95685 16.128C9.86311 18.1127 12.0278 17.9824 12.0278 17.9824Z" fill="white"/>
</svg>

<svg width="25" height="25" fill="none" xmlns="http://www.w3.org/2000/svg"><path d="M12.5 25C19.404 25 25 19.404 25 12.5S19.404 0 12.5 0 0 5.596 0 12.5 5.596 25 12.5 25Z" fill="#4D76A1"/><path fill-rule="evenodd" clip-rule="evenodd" d="M12.028 17.982h.98s.297-.032.449-.195c.139-.15.134-.431.134-.431s-.019-1.317.592-1.51c.603-.191 1.376 1.272 2.196 1.834.62.426 1.09.333 1.09.333l2.193-.03s1.146-.071.603-.973c-.045-.074-.317-.667-1.63-1.886-1.375-1.275-1.19-1.069.465-3.276 1.008-1.343 1.411-2.164 1.285-2.515-.12-.335-.861-.246-.861-.246l-2.468.015s-.183-.025-.319.056c-.132.08-.218.265-.218.265s-.39 1.04-.911 1.924c-1.1 1.867-1.539 1.965-1.718 1.85-.418-.271-.314-1.086-.314-1.665 0-1.808.274-2.562-.534-2.757-.268-.065-.466-.108-1.152-.115-.88-.01-1.626.003-2.048.21-.28.137-.497.443-.365.461.163.022.532.1.728.366.253.344.244 1.117.244 1.117s.146 2.129-.339 2.393c-.333.182-.789-.189-1.769-1.882a15.734 15.734 0 0 1-.88-1.825s-.074-.18-.204-.275a1.024 1.024 0 0 0-.38-.153l-2.345.015s-.352.01-.481.163c-.115.136-.01.418-.01.418s1.837 4.295 3.916 6.46c1.906 1.985 4.07 1.854 4.07 1.854Z" fill="#fff"/></svg>
